X:1
T:James Gibb editions
T:O sacrum convivium - Caldara
T:#
%%score [ 1 2 3 ] { ( 4 5 ) | 6 }
L:1/8
Q:1/4=80
M:4/4
K:Eb
V:1 treble nm="Soprano I" snm="S I"
V:2 treble nm="Soprano II" snm="S II"
V:3 bass nm="Bass" snm="B"
V:4 treble nm="Organ"
V:5 treble 
V:6 bass 
V:1
"^largo""^O sacrum convivium""^Antonio Caldara\n(1670 -1736)" z8 | z2 e4 d2 | e2 c2 (B4 | %3
w: |O sa-|crum con- vi\-|
 A3) A G4 | z8 | z2 eg fB e2- | e2 _d2 (c4 | =d2 e4 d2 | c3) c B4 | z4 z2 A2- | A2 G2 A3 A | %11
w: * vi- um,||in quo Chri- stus, Chri\-|* stus su\-||* mi- tur,|o|* sa- crum con-|
 G3 G F2 Bd | cF f4 e2 | (d4 e2 c2 | d2 e4) d2 | e2 z g f>g fe | d>d d2 z2 e2- | e2 d4 c2- | %18
w: vi- vi- um, in quo|Chri- stus, Chri- stus|su\- * *|* * mi-|tur, re- co- li- tur me-|mo- ri- a pas\-|* si- o\-|
 c2 B2 c3 c | =BG (c4 B2) | c2 z2 z2 z f | e>g fe d>d d2 | z4 c4 | B4 A3 A | G4 F2 _d2 | %25
w: * nis, pas- si-|o- nis e\- *|jus, re-|co- li- tur me- mo- ri- a|pas-|sÌ- o- nis|e- us, pas-|
 =B2 c2 =A2 _B2 | G2 !courtesy!_A2 ^F2 (G2- | G2 ^F2) G4 | z4 z2 z f | e>g fe d>d d2 | c4 B4 | %31
w: si- o- nis, pas-|si- o- nis e\-|* * jus,|re-|co- li- tur me- mo- ri- a|pas- si-|
 A6 G2 | (F2 G2 F4) | E8 || z2 B4 B2 | =B6 B2 | c3 c c4 | z2 _B4 e2 | _d6 d2 | c3 c !fermata!c4 || %40
w: o- nis|e\- * *|jus.|Mens im-|ple- tur|gra- ti- a,|mens im|ple- tur|gra- ti- a,|
"^allegro" e>e ee (f/e/f/g/ f/d/e/f/ | g/)f/e fe dc (B2- | B2 =A2) B2 z2 | e_dcB A4 | %44
w: et fu- tu- rae glo\- * * * * * * *|* ri- ae no- bis pi- gnus da\-|* * tur,|no- bis pi- gnus da-|
 G2 z2 B>B BB | (c/B/c/d/ c/=A/B/c/ d/)c/B B_A | GB (e4 _d2- | d2 c2 =B2 c2- | c2) =B2 c>c cc | %49
w: tur, et fu- tu- rae|glo\- * * * * * * * * ri- ae no- bis|pi- gnus da\- *||* tur, et fu- tu- rae|
 (d/c/d/e/ d/=B/c/d/ e/)d/c c2- | c2 =B2 c2 =A2 | (G=A _B2 c/B/c/d/ c/A/B/c/ | d6 cB | =A2 d4 c2) | %54
w: glo\- * * * * * * * * ri- ae no\-|* bis pi- gnus|da\- * * * * * * * * * *||* * tur,|
 z8 | z4 e>e ee | (f/e/f/g/ f/d/e/f/ g/)f/e z2 | f4 e4 | d4 c4 | (B2 e4 d2) || %60
w: |et fu- tu- rae|glo\- * * * * * * * * ri- ae|no- bis|pi- gnus|da\- * *|
[M:3/4] ee (fd) (ef) | B2 z e fd |[M:3/4] e2 z f ec |"^," d (fed g2 | z edc f2 | z dcB e2- | %66
w: tur. Al- le\- * lu\- *|ja, al- le- lu-|ja, al- le- lu-|ja, al\- * * *|||
 e2 df) ec | B (B/!courtesy!_A/ GB c2- | cc/B/ Ac d2- | dd/c/ Bd e2 | z ece f2- | fe/d/ ec) d=B | %72
w: * * * le- lu-|ja, al\- * * * *||||* * * * * le- lu-|
 c4 z2 | z6 | z (fedcd | ee_dcBc | _d6 | cd/e/ fg) (fe) | d2 d2 z2 | z6 | z e (fd) (ef) | %81
w: ja,||al\- * * * *|||* * * * * le\- *|lu- ja,||al- le\- * lu\- *|
 B2 z (BAF | GABc) (de) | (fe) dd ef | gf f3 e | %85
w: ja, al\- * *|* * * * le\- *|lu\- * ja, al- le- lu-|ja, al- le- lu-|
[Q:1/4=77] e2[Q:1/4=74] z[Q:1/4=72] e[Q:1/4=70] f[Q:1/4=69] (e/[Q:1/4=68]d/) |[Q:1/4=68] e4 z2 |] %87
w: ja, al- le- lu\- *|ja.|
V:2
 z4 z2 B2- | B2 =A2 B4 | (c2 fe d2) e2- | e2 d2 e4 | z2 Bd cF f2- | f2 e2 d2 B2 | A3 B E2 (A2- | %7
w: O|* sa- crum|con\- * * * vi\-|* vi- um,|in quo Chri- stus, Chri\-|* stus, Chri- stus|su- mi- tur, su\-|
 A2 G2 =A2 B2- | B2) =A2 B2 z2 | z2 E4 D2 | E2 G4 F2- | F2 E2 D4 | z2 FA GC c2- | c2 B4 (A2- | %14
w: |* mi- tur,|o sa-|crum con- vi\-|* vi- um,|in quo Chri- stus, Chri\-|* stus su\-|
 A2 G2 F3) F | E2 z e d>e dc | =B>B B2 G2 _A2 | ^F2 G2 =E2 =F2 | (D2 _E4) E2 | (D2 E2 D4) | %20
w: * * * mi-|tur, re- co- li- tur me-|mo- ri- a pas- si-|o- nis, pas- si-|o\- * nis|e\- * *|
 C2 z c B>c BA | G>G G2 z4 | z2 B4 A2- | A2 G4 F2- | F2 =E2 F2 z2 | G4 F4 | E3 e (d3 c/B/ | %27
w: jus, re- co- li- tur me-|mo- ri- a|pas- si\-|* o- nis|* e- jus,|pas- si-|o- nis e\- * *|
 =A4) G4 | z2 z c B>c BA | G>G G2 F2 G2 | =E2 F2 D2 _E2 | F6 E2 | (D2 E4 D2) | E8 || z2 F4 F2 | %35
w: * jus,|re- co- li- tur me-|mo- ri- a pas- si-|o- nis, pas- si-|o- nis|e\- * *|jus.|Mens im-|
 F6 F2 | E3 E E4 | z2 G4 G2 | B6 B2 | A3 A !fermata!A4 || z8 | z4 B>B BB | %42
w: ple- tur|gra- ti- a,|mens im-|ple- tur|gra- ti- a,||et fu- tu- rae|
 (c/B/c/d/ c/=A/B/c/ d/)c/B B_A | GB (E4 D2) | E2 AG F2 (GF) | (E2 F4) F2 | %46
w: glo\- * * * * * * * * ri- ae no- bis|pi- gnus da\- *|tur, no- bis pi- gnus *|da\- * tur,|
 E>E EE (F/E/F/G/ F/G/A/F/ | G/)F/E ee d2 e2 | d4 c2 z2 | z4 c>c cc | %50
w: et fu- tu- rae glo\- * * * * * * *|* ri- ae no- bis pi- gnus|da- tur,|et fu- tu- rae|
 (d/c/d/e/ d/=B/c/d/ e/)d/c dc | _B=A (G4 ^F2) | G2 B=A G3 G | (F2 B4) =A2 | %54
w: glo\- * * * * * * * * ri- ae no- bis|pi- gnus da\- *|tur, no- bis pi- gnus|da\- * tur,|
 B>B BB (c/B/c/d/ c/=A/B/c/ | d/c/B BA GB (e2- | e2 d2) e2 e2- | e2 d4 c2- | c2 B4 A2- | %59
w: et fu- tu- rae glo\- * * * * * * *|* ri- ae no- bis pi- gnus da\-|* * tur, no\-|* bis pi\-|* gnus da\-|
 A2 G2 F4) ||[M:3/4] E2 z2 z2 | z B (cG) (AB) |[M:3/4] E2 z B c=A | B2 z (dcB | c2 z cBA | %65
w: |tur.|Al- le\- * lu\- *|ja, al- le- lu-|ja, al\- * *||
 B2 z B=AG | =A2 B2) cA | B2 z (G/F/ EG | A3 A/G/ FA | B3 B/A/ GB | c2 z c) dc | (=B2 c)e fd | %72
w: |* * le- lu-|ja, al\- * * *|||* * le- lu-|ja, * al- le- lu\--|
 c4 z2 | z6 | z6 | z6 | z (BAGFG | AGAB) (AG) | F2 F2 z2 | z B (cG) (AB) | E2 z B c=A | B2 z (GFD | %82
w: ja,||||al\- * * * *|* * * * le\- *|lu- ja,|al- le\- * lu\- *|ja, al- le- lu-|\-ja. al\- * *|
 EFGA) (Bc) | (dc) BB cd | ec d3 e | e2 z B A (G/F/) | G4 z2 |] %87
w: * * * * le\- *|lu\- * ja, al- le- lu-|ja, al- le- lu-|ja, al- le- lu\- *|ja-|
V:3
 z2 E,4 D,2 | E,2 C,2 (B,,2 B,2- | B,2) =A,2 B,2 G,2 | F,3 F, E,2 E,G, | F,B,, B,4 A,2 | %5
w: O sa-|crum con- vi\- *|* vi- um, con-|vi- vi- um, in quo|Chri- stus, Chri\-- stus,|
 G,3 (F,/E,/) (B,2 G,2 | F,3) G, A,2 A,C | B,2 E,2 F,2 G,2 | E,2 F,2 B,,2 B,2- | B,2 G,2 A,2 F,2 | %10
w: Chri- stus * su\- *|* mi- tur, in quo|Chri- stus, Chri- stus|su- mi- tur, o|* sa- crum con-|
 (E,4 C,2 D,2 | E,3) E, B,,4 | z8 | z2 B,,D, C,F,, F,2- | F,2 E,2 B,,3 B,, | E,2 z E, F,>F, F,^F, | %16
w: vi\- * *|* vi- um,||in quo Chri- stus, Chri\-|* stus su- mi-|tur, re- co- li- tur me-|
 G,>G,, G,,2 z2 C2 | D2 =B,2 C2 =A,2 | _B,2 (G,2 _A,2) ^F,2 | G,8 | C,2 z2 z4 | z2 z C B,>C B,A, | %22
w: mo- ri- a pas-|si- o- nis, pas-|si- o\- * nis|e-|jus,|re- co- li- tur me-|
 G,>G, G,2 =E,2 F,2 | D,2 _E,2 C,2 _D,2 | B,,B,, C,2 F,2 F,2- | F,2 E,4 (D,2- | D,2 C,4) B,,2 | %27
w: mo- ri- a pas- si-|o- nis, pas- si-|o- nis e- jus, pas\-|* si- o\-|* * nis|
 (C,2 D,2) G,,2 z G, | F,>G, F,E, D,>D, D,2 | z4 z2 B,2- | B,2 A,4 (G,2- | G,2 F,E, D,2) E,2 | %32
w: e\- * jus, re-|co- li- tur me- mo- ri- a|pas\-|* si- o\-|* * * * nis|
 B,,8 | E,8 || z2 D,4 D,2 | G,6 G,2 | C,3 C, C,4 | z2 E,4 E,2 | G,6 G,2 | A,3 A, !fermata!A,4 || %40
w: e-|jus.|Mens im-|ple- tur|gra- ti- a,|mens im-|ple- tur|gra- ti- a,|
 z8 | z8 | z8 | E,>E, E,E, (F,/E,/F,/G,/ F,/D,/E,/F,/ | G,/)F,/E, F,E, D,C, (B,,2- | %45
w: |||et fu- tu- rae glo\- * * * * * * *|* ri- ae no- bis pi- gnus da\-|
 B,,2 =A,,2) B,,4 | E,_D,C,B,, (A,,2 B,,2 | E,3 F, G,2) C,2 | G,4 C,2 C2- | C2 =B,2 C2 C,2 | z8 | %51
w: * * tur,|no- bis pi- gnus da\- *|* * * tur,|da- tur, no\-|* bis pi- gnus,||
 G,>G, G,G, (=A,/G,/A,/B,/ A,/^F,/G,/A,/ | B,/=A,/G, G,F, E,4- | E,2 D,2 F,>F, F,F, | %54
w: et fu- tu- rae glo\- * * * * * * *|* ri- ae no- bis pi\-|* gnus, et fu- tu- rae|
 (G,/F,/G,/=A,/ G,/=E,/F,/G,/ A,/)G,/F, F,_E, | D,4 E,F,G,E,) | B,,2 B,,2 E,>E, E,E, | %57
w: glo\- * * * * * * * * ri- ae no- bis|pi- gnus * * *|da- tur, et fu- tu- rae|
 (F,/E,/F,/G,/ F,/D,/E,/F,/ G,/)F,/E, z2 | B,>B, B,B, (C/B,/C/D/ C/A,/B,/C/ | %59
w: glo\- * * * * * * * * ri- ae,|et fu- tu- rae glo\- * * * * * * *|
 D/)C/B, CC A,A, B,2 ||[M:3/4] E,2 z2 z2 | z6 |[M:3/4] z E, (F,D,) (E,F,) | B,,2 z (B,A,G, | %64
w: * ri- ae no- bis pi- gnus da-|tur.||Ai- le\- * lu\- *|ja, al\- * *|
 A,2 z A,G,F, | G,2 z G,F,E, | F,2 G,D,) E,F, | B,,2 z (E,/D,/ C,E, | F,3 F,/E,/ D,F, | %69
w: ||* * * le- lu-|ja, al\- * * *||
 G,3 G,/F,/ E,G, | A,3 A,) F,A, | G, (G,CA,) F,G, | C, (CB,A,G,A, | B,B,A,G,F,G, | A,6 | G,6 | %76
w: |* * le- lu-|ja, al\- * * le- lu-|ja, al\- * * * *||||
 E,6) | A,4 A,2 | B,F, (B,D,) (E,F,) | B,,2 z E, F,D, | E,2 D,2 C,F, | B,,B, (CG,) (A,B,) | %82
w: |le- lu-|ja, al- le\- * lu\- *|ja, al- le- lu-|ja, al- le- lu-|ja, al- le\- * lu\- *|
 E,3 E, D,C, | B,,3 C, B,,A,, | G,,A,, B,,3 B,, | E,2 z G, A,B, | E,4 z2 |] %87
w: ja, al- le- lu-|ja, al~ le- lu-|ja, al- le- lu-|¡a, al- le- lu-|ja.|
V:4
 z2"^largo" [B,EG]2 [CA]2 [B,B]2- | [B,G]2 [C=A]2 [FB]4 | [Ec]4 [Dd]2 [EGB]2- | %3
 [Ec]2 [Fd]2 [GBe]4- | e2 d2 c4 | [GB]4- B4 | A3 B E2 A2- | A2 [EG]2- [E=A]2 B2- | %8
 Bc =A2 B2 [B,DF]2 | [B,G]4 A4- | A2 G2 A4 | G4 F2 [DB]2- | B2 A2 G2 c2- | cd B4 [CA]2- | %14
 A2 G2 F4 | G2 [EGc]2 [DAd]3 [E=Ac] | [DG=B]4 [Gc]2 [=Ae]2- | e2 d4 [=Ac]2- | c2 B2 c3 A | G8- | %20
 G2 GA B3 A | G3 A B4- | B6 [FA]2- | [FA]2 [EG]4 [_DF]2- | [DF]2 [C=E]2- [CF]2 [A,_DA]2 | %25
 G4 =A2 B2- | [GB]2 [_Ac]2 [Dd]4 | =A4 [GB]2 [DG=B]2 | [Cc]4 B3 A | [EG]4 [DF]2 D2 | c4 B4 | %31
 [FA]6 [EG]2 | [DF]2 [EG]2 F2- [DF]2 | [G,B,E]8 || z2 B4 A2 | G8- | [CEG]8 | z2 [B,EG]4 [B,EG]2 | %38
 [B,_DEB]8 | !fermata![CEA]8 ||"^allegro" [B,EG]2 [GB]2 c3 B | [EGB]2 [Fc]2 F2 B2- | %42
 [GB]2 [F=A]2- [FB]2 [F_A]2 | [B,G]4 [A,A]4 | [EG]2 [DA][EG] [FB][EA]GF | c4 B3 _A | %46
 [B,EG]2 [EA][_DG] F4 | G3 A [=B,=D]2 EG | [DG]3- [DF] E2 [EGc]2 | [Fd]4 [EGc]2 [EGc]2- | %50
 [Ac]2 [G=B]2 [Gc]2 dc | [D_B]4 [Cc]4 | [GB]8 | F8- | F2 =E2 [F=A]4 | B3 A GABG | F4 G2 e2- | %57
 e2 d2 B2 c2- | c2 B4 A2- | A2 G2 c2 BA ||[M:3/4] [B,EG]2 F2 B2- | [EB][DG][CE][B,B][CA][DG] | %62
[M:3/4] BG=ABGA | B2 z D2 [EG]- | G2 F C2 [DF]- | F2 E B,2- [B,G] | [=A,C][E=A]BFGA | %67
 B>_A [B,EG]2 c>B | [FA]>[GB] [Ac]2 d>c | [GB]>[Ac] [Bd]2 e>d | [Ac]>[Bd] [ce]2 dc | %71
 [DG=B]2- [EGc][EAc]-[FAd][DGB] | [EGc]3 [A,C][G,=B,][A,C] | [F,B,D]3 [G,E][F,D][G,E] | %74
 [A,DF]3 [DF][CE][DF] | [B,EG]3 [CA][B,G][CA] | [_DGB]3 [GB][FA][GB] | [EAc]2 [CFc]4 | %78
 [DFB]3 [DF][CG][E=A] | B2 cB_AF | G2 F2 =A2 | B_AGBcA | G3 GFE | DFBAGF | [B,E][CF] [B,DG]4 | %85
 GABBcd | [GBe]4 z2 |] %87
V:5
 x4 F4 | E6 C2 | G2 F4 x2 | A4 x4 | [FB]6- [FA]2 | FD E2 [DF]2 [B,E]2- | [CE]2 _D2 C2 FE | %7
 =D2 ED C2 [B,D]2 | [CG]2 F2- [DF]2 x2 | E4- E2 D2 | [B,E]4- [EG]2 [DF]-[CF] | %11
 [B,F]2 [B,E]2 [B,D]2 F2- | F6 [EG]2 | [DF]4 [EG]2 FE | [A,D]2 [B,E]4- [B,D]2 | [B,E]2 x6 | %16
 x4 E3 c | [^FA]2 G2 =E2 =F2 | [DF]2 [EG][DF] [CE]4 | [=B,D]2 [CE]2 D2- [B,D]2 | %20
 [CE]2 [CE]2 [_B,F]4 | [B,E]3 E [DF]4 | [B,E]4 [CG]2- C2 | B,4 A,2 x2 | G,4 A,2 x2 | %25
 [=B,=D]2 [CE]2- [CF]2 [_B,F]2 | E4 [^F=A]2 G2- | [EG]2 [D^F]2- D2 x2 | =F4- [DF]4 | B,6 G2- | %30
 [EG]2 [CF]2- [DF]2 [B,_E]2 | C4 B,4- | B,6 A,2 | x8 || x2 [B,DF]6- | [=B,DF]8 | x8 | x8 | x8 | %39
 x8 || x4 A2- [FA]2 | x4 [DF]4 | C4 D2 B,2 | E3 _D CE =D2 | B,6- [B,D]2 | [CE]2 F2- [DF]4 | %46
 x4 C2 _D2- | D2 C2 x2 C2- | C=A, =B,2 [G,C]2 x2 | A3 G x4 | D3 F E2 [DA]2 | G6 F2 | D6 C2- | %53
 [C=A]2 [DB]4 [CA]2 | [B,B]4 C2 _E2 | [DF]4 [B,E]4- | [B,E]2 [B,D]2 [B,E]2 [GB]2 | [FA]4 E2 AG | %58
 [DF]4 E2 x2 | FD E2 F2- [DF]2 ||[M:3/4] x2 D4 | x6 |[M:3/4] E2 CFCE | D2 x4 | C3 x3 | B,3 x3 | %66
 x2 D2 C2 | D2 x2 [EG]2 | C3 F3 | D3 G3 | E3 A2 F | x6 | x3 E,3 | x3 B,3 | x3 B,3 | x3 E3 | x3 E3 | %77
 x6 | x6 | D E2 GCB, | B,4 E2 | D2 EDCD | E3 B,3- | B,2 D4 | x6 | [B,E]3 G F2 | x6 |] %87
V:6
 z2 E,4 D,2 | E,2 C,2 B,,2 B,2- | B,2 =A,2 B,2 G,2 | F,4 E,4 | B,,4 F,4 | G,3 F,/E,/ B,2 G,2 | %6
w: ~~~~~~~4 *|* 6 4 3|4 6~~~~5 * 6|7~~~~~~6 *|* 4|7~~~~~~~~~~6 * * * 6|
w: ~~~~~~~2 6||2 * * *||||
w: ||||||
 F,3 G, A,3 C | B,2 E,2 F,2 G,2 | E,2 F,2 B,,2 B,2 | E,4 F,4 | E,4 C,2 D,2 | E,4 B,,4 | %12
w: 7~~~~~6 * * *|7 * * 5|6 * * *|* 7~~~~~~~~6|4~~~~~~~~3 6 5|9~~~~8 *|
w: |* * 7 *|5 * * *||* 5 *||
w: ||||||
 F,4 C,3 =A,, | B,,3 D, C,F,, F,2- | F,2 E,2 B,,4 | E,2 C,2 F,3 ^F, | G,2 G,,2 C,2 C2 | %17
w: * 4~~~~~~~~~~~~~~~~3 5|9~~~~~8 * 7 * *|6 * 4~~3|* 5 * 7|* * 5 6|
w: |||* * * 5||
w: |||||
 D2 =B,2 C2 =A,2 | B,2 G,2 _A,2 ^F,2 | G,8 | C,2 C,2 D,4 | E,3 C B,>C B,A, | G,4 =E,2 F,2 | %23
w: 9 6 9 6|9 6 5 5|~~~~~~~~~~~~~6~~~~~5|* * 6||6 6 *|
w: 3 * 3 *|* * * 7|~~~~~~~~~~~~~4~~~~~4|||* 5 *|
w: ||||||
 D,2 E,2 C,2 _D,2 | B,,2 C,2 F,2 F,2- | F,2 E,4 D,2- | D,2 C,4 B,,2 | C,2 D,2 G,,2 G,,2 | %28
w: 6 * 6 *|* * * 6|4 6~~~~4 6|4 6~~~~~4 6|6 * * *|
w: 5 * 5 *|6 * * *|2 ~~~~~~2 *|2 ~~~~~~~2 *|5 * * *|
w: |5 * * *||||
 A,,4 B,,4 | E,4 B,,2 B,2- | B,2 A,4 G,2- | G,2 F,E, D,2 E,2 | B,,8 | E,8 || z2 D,4 D,2 | G,8 | %36
w: 6~~~~~~~~5 *|* * 6|4 6~~~~~~4 6|7 * * 5 *|5~~6~~5||6 *||
w: ||2 ~~~~~~~~2 *|2 * * * *|3~~4\_~~~~~3||||
w: ||||||||
 C,8 | z2 E,4 E,2 | G,8 | !fermata!A,8 || E,2 E4 D2 | E2 =A,2 B,4 | E,2 F,2 B,,2 D,2 | E,4 F,4 | %44
w: ||6||||6 * * *|* 7~~~~~~~~~~~~~~6|
w: ||5||||5 * * *||
w: ||||||||
 E,2 F,E, D,C, B,,2- | B,,2 =A,,2 B,,4 | E,_D,C,B,, A,,2 B,,2 | E,3 F, G,2 C,2 | G,4 C,2 C2- | %49
w: * * * * * 6|4 6 *|* * * * 6 *|7~~~~~~~~~~~~~~~~6 * * *|4 * *|
w: |2 * *|* * * * 5 *|||
w: |||||
 C2 =B,2 C2 C,2 | F,2 G,2 C2 ^F,2 | G,4 =A,4 | G,3 F, E,4- | E,2 D,2 F,4 | G,4 F,2 F,,2 | %55
w: 4 5 * *|6 * * 6~~~~~5|* 7~~~~~~~~~~~~6|* * 7~~~6~~~~5|4 6 6|7~~~~~~~~~~~~~~~~~~6 * 7|
w: 2 * * *|5 * * *|||2 * 4||
w: ||||||
 B,,4 E,F,G,E, | B,,4 E,4 | F,4 G,E,A,=A, | B,4 C4 | DB, C2 A,2 B,2 ||[M:3/4] E,2 B,2 A,2 | %61
w: ~~~~~~~~~~~~~~~~~~~~7 * * * *|4~~~~~~~~~~~~~~~~3 *|7~~~~~~~~~~~~~~6 6 * 5 *|9~~~~~~~~8 7~~~~~~~~~~~~6|5 7 5 6 *||
w: ||* 5 * * *||* * * 5 *||
w: ||||||
 G,2 A,G,F,B, |[M:3/4] G,E,F,D,E,F, | B,,2 z B,_A,G, | A,3 A,G,F, | G,3 G,F,E, | F,2 G,D,E,F, | %67
w: |||7~~~~~6 * * *|7~~~~~6 * * *||
w: ||||||
w: ||||||
 B,,2 E,2 C,E, | F,3 F,/E,/ D,F, | G,3 G,/F,/ E,G, | A,3 A,F,A, | G,2 CA,F,G, | C,6 | B,,6- | %74
w: |||* * * 6||||
w: |||||||
w: |||||||
 B,,6 | E,6- | E,6 | A,,6 | B,,3 D,E,F, | B,,G, !courtesy!_A,E,F,D, | E,2 D,2 C,F, | B,,B,CG,A,B, | %82
w: 7||7||||* 6 6 *||
w: ||||||||
w: ||||||||
 E,3 E,D,C, | B,,3 C, B,,A,, | G,,A,, B,,4 | E,F,G,G,A,B, | E,4 z2 |] %87
w: |||||
w: |||||
w: |||||

